public/avatar/hat/183.svg

<svg xmlns:xlink="http://www.w3.org/1999/xlink" height="92.9" width="100.7" xmlns="http://www.w3.org/2000/svg"><use height="23.4" transform="translate(20.1 39.3)" width="35.7" xlink:href="#a"/><defs><g id="a" fill-rule="evenodd"><path d="m-15.6 7.55 2.65-1.85q1.4-.25 1.6.85l-2.25 3.2q-.45.55-2-2.2M13.25 5.2l1.25 3q0 1.45-1.15 1.35L10.7 6.7q-.3-.4.9-1.05t1.65-.45" fill="#a82900" transform="translate(18.55 10.45)"/><path d="M4.1-5.6Q7.85-3.95 9-2.25l1.05 4.6.25 1.25q.1.4-.8 1.1-3.65 2.4-8.65 3-7.15.85-12.45-3.35l-.2-.5q.6-4.55 1.4-6.4.3-.7 3.95-2.55l4.85-2.05.15-.05Q.75-7 4.1-5.6" fill="#9a0000" transform="translate(18.55 10.45)"/><path d="m-6.85-4.7-3.9 8.4-1.2.1 1.55-6.35.6-.75 2.95-1.4m11.4.45L7.5-2.9l.6.8 1.55 6.35L8.4 4.1 4.55-4.25" fill="#400000" transform="translate(18.55 10.45)"/><path d="m5.55-4.9 1.4.7L8.5-3.05l.6.75 1.55 6.35-1.25-.1L5.55-4.9" fill="#400000" transform="translate(18.55 10.45)"/><path d="M-1.45-6.15q2.1.2 5.15 1.45 3.4 1.45 4.45 3 .4.6 1.05 5.75l-1.7 1.2q-2.15 1.1-4.65 1.6-7.55 1.6-13.6-3.15.7-4.55 1.3-5.95.25-.5 3.45-2.05l4.55-1.85" fill="#ffbe00" transform="translate(18.55 10.45)"/><path d="m9 2.75.2 1.3Q3 8.5-4.25 6.85q-1.2-4.7-.2-11.9l3-1.1q4.9.35 8.6 3.4.25 1.45-.05 4.9l1.9.6" fill="#ff6900" transform="translate(18.55 10.45)"/><path d="m6.25-4.8.45.45.15.45q-.5 3.55-1.9 8.95l-.2.8L4.7 6q-1.3 2.05-10.65.6l-.4-.45-.75-2.85q-1.8-6.7-1.55-7.1l3.45-3.05q3.55-3 4.15-3.05 1.7 0 7.3 5.1" fill="#9a0000" transform="translate(18.55 10.45)"/><path d="m-7.7-3.35 6.75-6.2q.65-.1 6.75 5.75-.55 3.75-2.15 9.7-1 1.75-9 .1 0-.25-2.35-9.35" fill="#fff" transform="translate(18.55 10.45)"/><path d="M2.65-1.9 2.1-5.4l-.35-2.1 2.5 2.25L2.4 2.2l.25-4.1m-6 8.25-.6-4.5 2.7 4.75-2.1-.25" fill="#a3c9f4" transform="translate(18.55 10.45)"/><path d="M3.3-7.5q3.65 2.7 3.9 3.25.25.45-1.45 7.35L5.2 5.55q0 .8-1.35.8-1.45 0-1.45-.9l1.25-8.8q-1.4-1.7-4.5-3.55-2.6 1.4-4.6 4l.7 4.35.85 4v.15l-.1.45q-.45.45-2.75-.45L-7 5.4-8.25.9q-1.1-4.55-.5-5l-.05.1 3.45-3.35q3.6-3.3 4.45-3L3.3-7.5" fill="#9a0000" transform="translate(18.55 10.45)"/><path d="m7.2-4.25.05 1.2q0 .5-1.65-.65L-.85-7.95l-8 5.25v-1.25L-5.6-7.2q3.45-3.25 4.4-3.25 1.6 0 8.4 6.2" fill="#400000" transform="translate(18.55 10.45)"/><path d="M6.25-3.9q.25.6-1.75 9.45 0 .45-1.1-.25l1.35-8.8q.05-.3-5.6-4.45L-6.45-3l1.8 8.8q.2.4-1.45-.65l-1.7-8.6 3.35-3.4q3.05-2.85 3.5-2.7l3.75 2.7L6.25-3.9" fill="#ff0" transform="translate(18.55 10.45)"/><path d="M5.6-3.7 4.5-5.3l-.2-.35L6.25-3.9q.25.6-1.75 9.45 0 .35-.5.25l.55-2.85.5-2.35q.7-3.45.55-4.3m-6.95-4.35q.85-.35.6.15l-.1-.05L-6.45-3l1.8 8.8q.1.2-.3 0L-5 5.55l-1-4.5q-1-3.95-.1-5l1.75-1.85 1.5-1.25 1.5-1" fill="#ff9c00" transform="translate(18.55 10.45)"/><path d="M11.75 3.6q1.25.2 3.15 1.8 1.65 1.35 2.15 2.25l.1.35v.1q0 .8-1.75 2.6-1.8 1.8-2.1 1.15-1.15-1.15-1.6-2.05l-.1-.25-.05-.2.15-.3.4-.75.1-.15q-.45-.95-1.5-1.1l-5.3 1.6q-4.3 1.15-5.5 1V9.6h-.05l-5.4-.8-6.05-1.5q-1.25.75-1.6 1.45l.5.45.45.4q-1.4 3.2-1.6 3.15-1.6-.35-3.25-1.9-1.45-1.35-1.45-1.95l.05-.25 2.25-2.55q2.3-2.25 4.05-2.55h.25Q-2.1 6.2-.35 6.05l3.95-.9q7-1.7 8.15-1.55" fill="#9a0000" transform="translate(18.55 10.45)"/><path d="m13.55 12.45-2-3.1-.85-2.3Q9.35 6.1 9.25 5.3V3.7h3.4q1.1.25 4.1 3.35l.3 1.4q-.25.85-3.5 4m-24.7-6.65-.3 1.75-.85 2.3-2.05 3.1q-3.75-2.5-4-3.35-.15-.5.35-1.3l.5-.75 4.15-3.6 2.15-.35.05 2.2" fill="#400000" transform="translate(18.55 10.45)"/><path d="M10.55 6.2 5.4 7.8Q.7 9-.25 8.8l-5.1-.8-6.3-1.55q-2.9 1.45-2.55 2.2.2 1 .7 1.2.4.15-1.1 1.8-1.1-.4-2.05-1.35l-.85-1.35q3.3-4.25 5.4-4.55L-.25 6.9l5.9-1.4q4.95-1.2 5.9-1.05 1.25.2 3.1 1.75 1.7 1.5 1.5 1.85.2.7-2.5 3.1L12.6 9.4l.65-1.4-1.35-1.2q-1.1-.7-1.35-.6" fill="#ffbe00" transform="translate(18.55 10.45)"/><path d="M12.95 6.35q2 1.05 2.7 2.95-1.5 2.2-2 1.85L12.6 9.4l.65-1.4-1.35-1.2q-1.1-.7-1.35-.6L5.4 7.8Q.7 9-.25 8.8l-5.1-.8-6.3-1.55q-2.9 1.45-2.55 2.2.2 1 .7 1.2.4.15-1.1 1.8-1.1-.4-2.05-1.35l1-1.55 2.75-2.9q.4-.4 3.45.6l5.25 1.3q2.35.85 5.9 0L9 5.7q1.95-.4 3.95.65" fill="#ff6900" transform="translate(18.55 10.45)"/><path d="m1.3-4.4.35.35q.3 1.95-.1 8.05l-.45.45-2.4-.1-.2-.4.2-3.65-.75.9-.7.1-.45-.25Q-4.45.5-4.55 0l.1-.5 1.6-2q1.65-2 2.15-2l.25-.05 1.75.15" fill="#6d0303" transform="translate(18.55 10.45)"/><path d="m-3.5-.25 1.55-1.85L-.4-3.55l1.1.05-.15 7-1.05.05.05-5.6L-2.55.3l-.95-.55" fill="#d20000" transform="translate(18.55 10.45)"/><path d="M-1.55-1.8-2.6-.4q-.4.55-.7.25l.25-.6 1.7-1.85q.95-1.1 1.4-.95l-.75.85-.85.9" fill="#ff8b6c" transform="translate(18.55 10.45)"/><path d="M-7.5-1.7q-.15-3.35 1.9-3.65-1.45 1.85-1.35 3.3L-6 3.3h.15q-.45.25-1.1-2.1l-.55-2.9M.4-8.2l-.5-.5-1.25-.15q-1.4 1.7-2.3 1.65 1.2-1.65 2.4-2.1.5-.2 2.15 1l-.5.1M5-4q.65.65-.2 4.6l-.9 4.1-.15.05Q3.5 4.25 4 1.4q.25-2.7.75-3.55Q4.75-3.8 5-4M-9.3-2.2h.25l-.3 1.5q-.5 2.15-.15 4.85-.9-.15-.95-.45l.15-1.3q.6-4.4 1-4.6m5.05 8.8q6 2.05-6.65-1l-2.6.45-3.5 3.8q-1.05-1.05 2.15-3.9 1.4-1.25 2.4-1.4l1.45.1 6.75 1.95" fill="#fff" transform="translate(18.55 10.45)"/></g></defs></svg>

<?xml version="1.0" encoding="UTF-8" standalone="no"?>
<svg xmlns:xlink="http://www.w3.org/1999/xlink" height="92.9px" width="100.7px" xmlns="http://www.w3.org/2000/svg">
  <g transform="matrix(1.0, 0.0, 0.0, 1.0, 38.65, 49.75)">
    <use height="23.4" transform="matrix(1.0, 0.0, 0.0, 1.0, -18.55, -10.45)" width="35.7" xlink:href="#shape0"/>
  </g>
  <defs>
    <g id="shape0" transform="matrix(1.0, 0.0, 0.0, 1.0, 18.55, 10.45)">
      <path d="M-15.6 7.55 L-12.95 5.7 Q-11.55 5.45 -11.35 6.55 L-13.6 9.75 Q-14.05 10.3 -15.6 7.55" fill="#a82900" fill-rule="evenodd" stroke="none"/>
      <path d="M13.25 5.2 L14.5 8.2 Q14.5 9.65 13.35 9.55 L10.7 6.7 Q10.4 6.3 11.6 5.65 12.8 5.0 13.25 5.2" fill="#a82900" fill-rule="evenodd" stroke="none"/>
      <path d="M4.1 -5.6 Q7.85 -3.95 9.0 -2.25 L10.05 2.35 10.3 3.6 Q10.4 4.0 9.5 4.7 5.85 7.1 0.85 7.7 -6.3 8.55 -11.6 4.35 L-11.8 3.85 Q-11.2 -0.7 -10.4 -2.55 -10.1 -3.25 -6.45 -5.1 L-1.6 -7.15 -1.45 -7.2 Q0.75 -7.0 4.1 -5.6" fill="#9a0000" fill-rule="evenodd" stroke="none"/>
      <path d="M-6.85 -4.7 L-10.75 3.7 -11.95 3.8 -10.4 -2.55 -9.8 -3.3 -6.85 -4.7" fill="#400000" fill-rule="evenodd" stroke="none"/>
      <path d="M4.55 -4.25 L7.5 -2.9 8.1 -2.1 9.65 4.25 8.4 4.1 4.55 -4.25" fill="#400000" fill-rule="evenodd" stroke="none"/>
      <path d="M5.55 -4.9 L6.95 -4.2 8.5 -3.05 9.1 -2.3 10.65 4.05 9.4 3.95 5.55 -4.9" fill="#400000" fill-rule="evenodd" stroke="none"/>
      <path d="M-1.45 -6.15 Q0.65 -5.95 3.7 -4.7 7.1 -3.25 8.15 -1.7 8.55 -1.1 9.2 4.05 L7.5 5.25 Q5.35 6.35 2.85 6.85 -4.7 8.45 -10.75 3.7 -10.05 -0.85 -9.45 -2.25 -9.2 -2.75 -6.0 -4.3 L-1.45 -6.15" fill="#ffbe00" fill-rule="evenodd" stroke="none"/>
      <path d="M9.0 2.75 L9.2 4.05 Q3.0 8.5 -4.25 6.85 -5.45 2.15 -4.45 -5.05 L-1.45 -6.15 Q3.45 -5.8 7.15 -2.75 7.4 -1.3 7.1 2.15 L9.0 2.75" fill="#ff6900" fill-rule="evenodd" stroke="none"/>
      <path d="M6.25 -4.8 L6.7 -4.35 6.85 -3.9 Q6.35 -0.35 4.95 5.05 L4.75 5.85 4.7 6.0 Q3.4 8.05 -5.95 6.6 L-6.35 6.15 -7.1 3.3 Q-8.9 -3.4 -8.65 -3.8 L-5.2 -6.85 Q-1.65 -9.85 -1.05 -9.9 0.65 -9.9 6.25 -4.8" fill="#9a0000" fill-rule="evenodd" stroke="none"/>
      <path d="M-7.7 -3.35 L-0.95 -9.55 Q-0.3 -9.65 5.8 -3.8 5.25 -0.05 3.65 5.9 2.65 7.65 -5.35 6.0 -5.35 5.75 -7.7 -3.35" fill="#ffffff" fill-rule="evenodd" stroke="none"/>
      <path d="M2.65 -1.9 L2.1 -5.4 1.75 -7.5 4.25 -5.25 2.4 2.2 2.65 -1.9" fill="#a3c9f4" fill-rule="evenodd" stroke="none"/>
      <path d="M-3.35 6.35 L-3.95 1.85 -1.25 6.6 -3.35 6.35" fill="#a3c9f4" fill-rule="evenodd" stroke="none"/>
      <path d="M3.3 -7.5 Q6.95 -4.8 7.2 -4.25 7.45 -3.8 5.75 3.1 L5.2 5.55 Q5.2 6.35 3.85 6.35 2.4 6.35 2.4 5.45 L3.65 -3.35 Q2.25 -5.05 -0.85 -6.9 -3.45 -5.5 -5.45 -2.9 L-4.75 1.45 -3.9 5.45 -3.9 5.6 -4.0 6.05 Q-4.45 6.5 -6.75 5.6 L-7.0 5.4 -8.25 0.9 Q-9.35 -3.65 -8.75 -4.1 L-8.8 -4.0 -5.35 -7.35 Q-1.75 -10.65 -0.9 -10.35 L3.3 -7.5" fill="#9a0000" fill-rule="evenodd" stroke="none"/>
      <path d="M7.2 -4.25 L7.25 -3.05 Q7.25 -2.55 5.6 -3.7 L-0.85 -7.95 -8.85 -2.7 -8.85 -3.95 -5.6 -7.2 Q-2.15 -10.45 -1.2 -10.45 0.4 -10.45 7.2 -4.25" fill="#400000" fill-rule="evenodd" stroke="none"/>
      <path d="M6.25 -3.9 Q6.5 -3.3 4.5 5.55 4.5 6.0 3.4 5.3 L4.75 -3.5 Q4.8 -3.8 -0.85 -7.95 L-6.45 -3.0 -4.65 5.8 Q-4.45 6.2 -6.1 5.15 L-7.8 -3.45 -4.45 -6.85 Q-1.4 -9.7 -0.95 -9.55 L2.8 -6.85 6.25 -3.9" fill="#ffff00" fill-rule="evenodd" stroke="none"/>
      <path d="M5.6 -3.7 L4.5 -5.3 4.3 -5.65 6.25 -3.9 Q6.5 -3.3 4.5 5.55 4.5 5.9 4.0 5.8 L4.55 2.95 5.05 0.6 Q5.75 -2.85 5.6 -3.7" fill="#ff9c00" fill-rule="evenodd" stroke="none"/>
      <path d="M-1.35 -8.05 Q-0.5 -8.4 -0.75 -7.9 L-0.85 -7.95 -6.45 -3.0 -4.65 5.8 Q-4.55 6.0 -4.95 5.8 L-5.0 5.55 -6.0 1.05 Q-7.0 -2.9 -6.1 -3.95 L-4.35 -5.8 -2.85 -7.05 -1.35 -8.05" fill="#ff9c00" fill-rule="evenodd" stroke="none"/>
      <path d="M11.75 3.6 Q13.0 3.8 14.9 5.4 16.55 6.75 17.05 7.65 L17.15 8.0 17.15 8.1 Q17.15 8.9 15.4 10.7 13.6 12.5 13.3 11.85 12.15 10.7 11.7 9.8 L11.6 9.55 11.55 9.35 11.7 9.05 12.1 8.3 12.2 8.15 Q11.75 7.2 10.7 7.05 L5.4 8.65 Q1.1 9.8 -0.1 9.65 L-0.1 9.6 -0.15 9.6 -5.55 8.8 -11.6 7.3 Q-12.85 8.05 -13.2 8.75 L-12.7 9.2 -12.25 9.6 Q-13.65 12.8 -13.85 12.75 -15.45 12.4 -17.1 10.85 -18.55 9.5 -18.55 8.9 L-18.5 8.65 -16.25 6.1 Q-13.95 3.85 -12.2 3.55 L-11.95 3.55 Q-2.1 6.2 -0.35 6.05 L3.6 5.15 Q10.6 3.45 11.75 3.6" fill="#9a0000" fill-rule="evenodd" stroke="none"/>
      <path d="M13.55 12.45 L11.55 9.35 10.7 7.05 Q9.35 6.1 9.25 5.3 L9.25 3.7 12.65 3.7 Q13.75 3.95 16.75 7.05 L17.05 8.45 Q16.8 9.3 13.55 12.45" fill="#400000" fill-rule="evenodd" stroke="none"/>
      <path d="M-11.15 5.8 L-11.45 7.55 -12.3 9.85 -14.35 12.95 Q-18.1 10.45 -18.35 9.6 -18.5 9.1 -18.0 8.3 L-17.5 7.55 -13.35 3.95 -11.2 3.6 -11.15 5.8" fill="#400000" fill-rule="evenodd" stroke="none"/>
      <path d="M10.55 6.2 L5.4 7.8 Q0.7 9.0 -0.25 8.8 L-5.35 8.0 -11.65 6.45 Q-14.55 7.9 -14.2 8.65 -14.0 9.65 -13.5 9.85 -13.1 10.0 -14.6 11.65 -15.7 11.25 -16.65 10.3 L-17.5 8.95 Q-14.2 4.7 -12.1 4.4 L-0.25 6.9 5.65 5.5 Q10.6 4.3 11.55 4.45 12.8 4.65 14.65 6.2 16.35 7.7 16.15 8.05 16.35 8.75 13.65 11.15 L12.6 9.4 13.25 8.0 11.9 6.8 Q10.8 6.1 10.55 6.2" fill="#ffbe00" fill-rule="evenodd" stroke="none"/>
      <path d="M12.95 6.35 Q14.95 7.4 15.65 9.3 14.15 11.5 13.65 11.15 L12.6 9.4 13.25 8.0 11.9 6.8 Q10.8 6.1 10.55 6.2 L5.4 7.8 Q0.7 9.0 -0.25 8.8 L-5.35 8.0 -11.65 6.45 Q-14.55 7.9 -14.2 8.65 -14.0 9.65 -13.5 9.85 -13.1 10.0 -14.6 11.65 -15.7 11.25 -16.65 10.3 L-15.65 8.75 -12.9 5.85 Q-12.5 5.45 -9.45 6.45 L-4.2 7.75 Q-1.85 8.6 1.7 7.75 L9.0 5.7 Q10.95 5.3 12.95 6.35" fill="#ff6900" fill-rule="evenodd" stroke="none"/>
      <path d="M1.3 -4.4 L1.65 -4.05 Q1.95 -2.1 1.55 4.0 L1.1 4.45 -1.3 4.35 -1.5 3.95 -1.3 0.3 -2.05 1.2 -2.75 1.3 -3.2 1.05 Q-4.45 0.5 -4.55 0.0 L-4.45 -0.5 -2.85 -2.5 Q-1.2 -4.5 -0.7 -4.5 L-0.45 -4.55 1.3 -4.4" fill="#6d0303" fill-rule="evenodd" stroke="none"/>
      <path d="M-3.5 -0.25 L-1.95 -2.1 -0.4 -3.55 0.7 -3.5 0.55 3.5 -0.5 3.55 -0.45 -2.05 -2.55 0.3 -3.5 -0.25" fill="#d20000" fill-rule="evenodd" stroke="none"/>
      <path d="M-1.55 -1.8 L-2.6 -0.4 Q-3.0 0.15 -3.3 -0.15 L-3.05 -0.75 -1.35 -2.6 Q-0.4 -3.7 0.05 -3.55 L-0.7 -2.7 -1.55 -1.8" fill="#ff8b6c" fill-rule="evenodd" stroke="none"/>
      <path d="M-7.5 -1.7 Q-7.65 -5.05 -5.6 -5.35 -7.05 -3.5 -6.95 -2.05 L-6.0 3.3 -5.85 3.3 Q-6.3 3.55 -6.95 1.2 L-7.5 -1.7" fill="#ffffff" fill-rule="evenodd" stroke="none"/>
      <path d="M0.4 -8.2 L-0.1 -8.7 -1.35 -8.85 Q-2.75 -7.15 -3.65 -7.2 -2.45 -8.85 -1.25 -9.3 -0.75 -9.5 0.9 -8.3 L0.4 -8.2" fill="#ffffff" fill-rule="evenodd" stroke="none"/>
      <path d="M5.0 -4.0 Q5.65 -3.35 4.8 0.6 L3.9 4.7 3.75 4.75 Q3.5 4.25 4.0 1.4 4.25 -1.3 4.75 -2.15 4.75 -3.8 5.0 -4.0" fill="#ffffff" fill-rule="evenodd" stroke="none"/>
      <path d="M-9.3 -2.2 L-9.05 -2.2 -9.35 -0.7 Q-9.85 1.45 -9.5 4.15 -10.4 4.0 -10.45 3.7 L-10.3 2.4 Q-9.7 -2.0 -9.3 -2.2" fill="#ffffff" fill-rule="evenodd" stroke="none"/>
      <path d="M-4.25 6.6 Q1.75 8.65 -10.9 5.6 L-13.5 6.05 -17.0 9.85 Q-18.05 8.8 -14.85 5.95 -13.45 4.7 -12.45 4.55 L-11.0 4.65 -4.25 6.6" fill="#ffffff" fill-rule="evenodd" stroke="none"/>
    </g>
  </defs>
</svg>
